icons/svg/text-add.svg

<svg width="24" height="24" viewBox="0 0 24 24" fill="none" xmlns="http://www.w3.org/2000/svg">
<path d="M19.25 8.38889L18.6303 7.15424C18.1213 6.14015 17.0837 5.5 15.9491 5.5H8.05092C6.91626 5.5 5.87869 6.14015 5.3697 7.15424L4.75 8.38889M12 5.5V11.5" stroke="currentColor" stroke-width="1.5" stroke-linecap="round" stroke-linejoin="round"/>
<path fill-rule="evenodd" clip-rule="evenodd" d="M17.5 23C20.5376 23 23 20.5376 23 17.5C23 14.4624 20.5376 12 17.5 12C14.4624 12 12 14.4624 12 17.5C12 20.5376 14.4624 23 17.5 23ZM17.5 14.0066C17.7761 14.0066 18 14.2304 18 14.5066V17.0001H20.4934C20.7696 17.0001 20.9934 17.2239 20.9934 17.5001C20.9934 17.7762 20.7696 18.0001 20.4934 18.0001H18V20.4934C18 20.7696 17.7761 20.9934 17.5 20.9934C17.2239 20.9934 17 20.7696 17 20.4934V18.0001H14.5066C14.2304 18.0001 14.0066 17.7762 14.0066 17.5001C14.0066 17.2239 14.2304 17.0001 14.5066 17.0001H17V14.5066C17 14.2304 17.2239 14.0066 17.5 14.0066Z" fill="currentColor"/>
</svg>

<svg xmlns="http://www.w3.org/2000/svg" width="24" height="24" fill="none" viewBox="0 0 24 24"><path stroke="currentColor" stroke-linecap="round" stroke-linejoin="round" stroke-width="1.5" d="m19.25 8.389-.62-1.235A3 3 0 0 0 15.95 5.5h-7.9a3 3 0 0 0-2.68 1.654L4.75 8.39M12 5.5v6"/><path fill="currentColor" fill-rule="evenodd" d="M17.5 23a5.5 5.5 0 1 0 0-11 5.5 5.5 0 0 0 0 11m0-8.993a.5.5 0 0 1 .5.5V17h2.493a.5.5 0 1 1 0 1H18v2.493a.5.5 0 1 1-1 0V18h-2.493a.5.5 0 1 1 0-1H17v-2.493a.5.5 0 0 1 .5-.5" clip-rule="evenodd"/></svg>
